X: 2220
T: Autumn Leaves
R: hornpipe
M: 4/4
K: Dmajor
dB|AFEG FDEF|D2 FA dfec|dcBA FABc|dBAF E2 dB|
AFEG FDEF|D2 D2 ADFA|dcBA FDEF|D2 D2 D2 (3ABc||
dfef dBAB|dfef d2 (3ABc|dfef dBAB|dBAF E2 dB|
AFEG FDEF|D2 D2 ADFA|dcBA FDEF|D2 D2 D2||

